www/assets/icons/align_vertical_center.svg

<svg xmlns="http://www.w3.org/2000/svg" width="24" height="24" viewBox="0 0 24 24" fill='currentColor'><path d="M22.08 11h-5V6h-3v5h-4V3h-3v8H1.92v2h5.16v8h3v-8h4v5h3v-5h5z"/></svg>

<svg width="24" height="24" viewBox="0 0 24 24" xmlns="http://www.w3.org/2000/svg" fill='currentColor'><path d="M22.08 11H17.08V6H14.08V11H10.08V3H7.07998V11H1.91998V13H7.07998V21H10.08V13H14.08V18H17.08V13H22.08V11Z"/></svg>
